X:1
T:Title
%%score { ( 1 3 ) | ( 2 4 ) }
L:1/8
Q:1/4=108
M:4/4
K:A
V:1 treble nm="Grand Piano"
V:3 treble 
V:2 bass 
V:4 bass 
V:1
 [Ec]2 [Ec]>[DB] [CA]2 [CE]2 | [DF]4 [CE]4 | G2 G>F E2 d2 | c6 z2 | [Ec]2 [Ec]>[DB] [CA]2 [CE]2 | %5
w: Chas.~H.~Gabriel * * * *|||||
 [DF]4 [CE]4 | G2 G>A B2 c2 | [CA]6 z2 | G2 G>A B2 ^A2 | c2 B2 G2 E2 | [EA]2 [EA]>B c2 [A^d]2 | %11
w: ||||||
[M:3/4] e6 |[M:1/4] d2 |[M:4/4] [Ec]2 [Ec]>[DB] [CA]2 [CE]2 | [DF]4 [CE]4 | G2 G>A B2 c2 | %16
w: |||||
 [CA]6 z2 | [FA]2 [DF]>[FA] [Fd]2 [DF]2 | [CE]4 c4 | c2 B>c [^DB]2 [Dc]2 |[M:3/4] B4 e2 | %21
w: |||||
[M:1/4] d2 |[M:4/4] [Ec]2 [Ec]>[DB] [CA]2 [CE]2 | [DF]4 [CE]4 | G2 G>A B2 c2 |[M:8/4] [CA]8 z8 |] %26
w: |||||
V:2
 [A,,A,]2 [A,,A,]>[A,,A,] [A,,A,]2 [A,,A,]2 | [A,,A,]4 [A,,A,]4 | %2
 [E,B,D]2 [E,B,D]>[E,A,D] [E,G,D]2 [E,G,E]2 | [A,E]6 z2 | %4
 [A,,A,]2 [A,,A,]>[A,,A,] [A,,A,]2 [A,,A,]2 | [A,,A,]4 [A,,A,]4 | %6
 [E,B,D]2 [E,B,D]>[E,A,C] [E,G,D]2 [E,G,E]2 | [A,,A,]6 z2 | %8
 [E,B,E]2 [E,B,E]>[E,CE] [E,DE]2 [E,CE]2 | [E,E]2 [E,DE]2 [E,B,E]2 [D,G,]2 | %10
 [C,A,]2 [C,A,]>[E,G,E] [A,E]2 [F,B,]2 |[M:3/4] B,2 C2 D2 |[M:1/4] [E,G,E]2 | %13
[M:4/4] [A,,A,]2 [A,,A,]>[A,,A,] [A,,A,]2 [A,,A,]2 | [A,,A,]4 [A,,A,]4 | %15
 [E,B,D]2 [E,B,D]>[E,A,C] [E,G,D]2 [E,G,E]2 | [A,,A,]6 z2 | [D,A,]2 [D,A,]>[D,A,] [D,A,]2 [D,A,]2 | %18
 [A,,A,]4 [A,E]4 | [F,A,^D]2 [F,A,D]>[F,A,D] [B,,A,]2 [B,,A,]2 |[M:3/4] [G,E]4 [B,G]2 | %21
[M:1/4] [E,G,E]2 |[M:4/4] [A,,A,]2 [A,,A,]>[A,,A,] [A,,A,]2 [A,,A,]2 | [A,,A,]4 [A,,A,]4 | %24
 [E,B,D]2 [E,B,D]>[E,A,C] [E,G,D]2 [E,G,E]2 |[M:8/4] [A,,A,]8 z8 |] %26
V:3
 x8 | x8 | x8 | x8 | x8 | x8 | x8 | x8 | x8 | x8 | x8 |[M:3/4] G2 A2 B2 |[M:1/4] x2 |[M:4/4] x8 | %14
 x8 | x8 | x8 | x8 | x8 | x8 |[M:3/4] x6 |[M:1/4] x2 |[M:4/4] x8 | x8 | x8 |[M:8/4] x16 |] %26
V:4
 x8 | x8 | x8 | x8 | x8 | x8 | x8 | x8 | x8 | x8 | x8 |[M:3/4] E,6 |[M:1/4] x2 |[M:4/4] x8 | x8 | %15
 x8 | x8 | x8 | x8 | x8 |[M:3/4] E,6 |[M:1/4] x2 |[M:4/4] x8 | x8 | x8 |[M:8/4] x16 |] %26

